packages/icons/general/Restore.svg

<svg width="48" height="48" viewBox="0 0 48 48" xmlns="http://www.w3.org/2000/svg">
<g>
        <g filter="url(#filter0_b)">
            <path
                d="M7 25C7 23.8954 7.89543 23 9 23H39C40.1046 23 41 23.8954 41 25V35C41 35.5523 40.5523 36 40 36H8C7.44772 36 7 35.5523 7 35V25Z"
                fill="#FFD149"
                fill-opacity="0.1"
            />
        </g>
        <path
            d="M25.6245 36.13C25.2138 36.1818 25.0988 36.1714 24.8031 36.1714C24.1491 36.1714 23.5219 35.9094 23.0594 35.4431C22.5969 34.9767 22.3371 34.3442 22.3371 33.6847C22.3371 33.0252 22.5969 32.3927 23.0594 31.9264C23.5219 31.46 24.1491 31.198 24.8031 31.198C25.0988 31.198 25.2261 31.2105 25.6245 31.1214C30.2198 30.6928 33.8419 26.8355 33.8419 22.0836C33.8422 20.8867 33.6085 19.7015 33.1544 18.5957C32.7002 17.4899 32.0344 16.4851 31.195 15.6389C30.3556 14.7927 29.359 14.1215 28.2623 13.6638C27.1655 13.2061 25.9901 12.9708 24.8031 12.9713C20.0907 12.9713 16.2654 16.6216 15.8547 21.2554H20.6944L13.2983 29.5437L5.9043 21.2554H10.8734C11.0788 17.6706 12.636 14.3008 15.2259 11.8363C17.8157 9.3718 21.2422 7.9993 24.8031 8C26.6374 7.99973 28.4538 8.36381 30.1486 9.07146C31.8434 9.77911 33.3833 10.8165 34.6804 12.1243C35.9776 13.4321 37.0066 14.9847 37.7086 16.6936C38.4106 18.4024 38.7719 20.234 38.7719 22.0836C38.7662 25.6728 37.4026 29.1246 34.9595 31.7348C32.5163 34.345 29.1776 35.917 25.6245 36.13Z"
            fill="#FFC524"
        />
        <g filter="url(#filter1_b)">
            <path
                d="M6 29C6 27.8954 6.89543 27 8 27H40C41.1046 27 42 27.8954 42 29V39C42 39.5523 41.5523 40 41 40H7C6.44772 40 6 39.5523 6 39V29Z"
                fill="#FFD149"
                fill-opacity="0.2"
            />
        </g>
        <defs>
            <filter
                id="filter0_b"
                x="3"
                y="19"
                width="42"
                height="21"
                filter-units="userSpaceOnUse"
                color-interpolation-filters="sRGB">
                <feFlood flood-opacity="0" result="BackgroundImageFix" />
                <feGaussianBlur in="BackgroundImage" std-deviation="2" />
                <feComposite in2="SourceAlpha" operator="in" result="effect1_backgroundBlur" />
                <feBlend mode="normal" in="SourceGraphic" in2="effect1_backgroundBlur" result="shape" />
            </filter>
            <filter
                id="filter1_b"
                x="2"
                y="23"
                width="44"
                height="21"
                filter-units="userSpaceOnUse"
                color-interpolation-filters="sRGB">
                <feFlood flood-opacity="0" result="BackgroundImageFix" />
                <feGaussianBlur in="BackgroundImage" std-deviation="2" />
                <feComposite in2="SourceAlpha" operator="in" result="effect1_backgroundBlur" />
                <feBlend mode="normal" in="SourceGraphic" in2="effect1_backgroundBlur" result="shape" />
            </filter>
            <linearGradient
                id="paint0_linear"
                x1="5.9043"
                y1="36.1723"
                x2="38.7719"
                y2="36.1723"
                gradient-units="userSpaceOnUse">
                <stop stop-color="#FFB110" />
                <stop offset="1" stop-color="#FFC524" />
            </linearGradient>
        </defs>
    </g>
</svg>

<svg xmlns="http://www.w3.org/2000/svg" viewBox="0 0 48 48">
    <g filter="url(#Restore_svg__a)">
        <path fill="#FFD149" fill-opacity=".1" d="M7 25a2 2 0 0 1 2-2h30a2 2 0 0 1 2 2v10a1 1 0 0 1-1 1H8a1 1 0 0 1-1-1V25Z"/>
    </g>
    <path fill="#FFC524" d="M25.625 36.13c-.411.052-.526.041-.822.041a2.456 2.456 0 0 1-1.744-.728 2.497 2.497 0 0 1 0-3.517 2.456 2.456 0 0 1 1.744-.728c.296 0 .423.012.822-.077a9.067 9.067 0 0 0 8.217-9.037 9.177 9.177 0 0 0-.688-3.488 9.116 9.116 0 0 0-1.959-2.957 9.03 9.03 0 0 0-2.933-1.975 8.971 8.971 0 0 0-3.459-.693c-4.712 0-8.538 3.65-8.948 8.284h4.84l-7.397 8.289-7.394-8.289h4.97a14.116 14.116 0 0 1 4.352-9.419 13.866 13.866 0 0 1 14.923-2.765 13.959 13.959 0 0 1 4.531 3.053 14.09 14.09 0 0 1 3.029 4.57 14.186 14.186 0 0 1 1.063 5.39 14.158 14.158 0 0 1-3.813 9.65 13.929 13.929 0 0 1-9.335 4.396Z"/>
    <g filter="url(#Restore_svg__b)">
        <path fill="#FFD149" fill-opacity=".2" d="M6 29a2 2 0 0 1 2-2h32a2 2 0 0 1 2 2v10a1 1 0 0 1-1 1H7a1 1 0 0 1-1-1V29Z"/>
    </g>
    <defs>
        <filter id="Restore_svg__a" width="42" height="21" x="3" y="19" color-interpolation-filters="sRGB">
            <feFlood flood-opacity="0" result="BackgroundImageFix"/>
            <feGaussianBlur in="BackgroundImage"/>
            <feComposite in2="SourceAlpha" operator="in" result="effect1_backgroundBlur"/>
            <feBlend in="SourceGraphic" in2="effect1_backgroundBlur" result="shape"/>
        </filter>
        <filter id="Restore_svg__b" width="44" height="21" x="2" y="23" color-interpolation-filters="sRGB">
            <feFlood flood-opacity="0" result="BackgroundImageFix"/>
            <feGaussianBlur in="BackgroundImage"/>
            <feComposite in2="SourceAlpha" operator="in" result="effect1_backgroundBlur"/>
            <feBlend in="SourceGraphic" in2="effect1_backgroundBlur" result="shape"/>
        </filter>
    </defs>
</svg>
